style-guide/assets/xd-icons-sitemap-tiny.svg

<?xml version="1.0" encoding="UTF-8"?>
<svg width="12px" height="12px" viewBox="0 0 12 12" version="1.1" xmlns="http://www.w3.org/2000/svg" xmlns:xlink="http://www.w3.org/1999/xlink">
    <!-- Generator: Sketch 51.3 (57544) - http://www.bohemiancoding.com/sketch -->
    <title>sitemap</title>
    <desc>Created with Sketch.</desc>
    <defs></defs>
    <g id="sitemap" stroke="none" stroke-width="1" fill="none" fill-rule="evenodd">
        <path d="M11,5.00037281 L7,5.00037281 L7,4.00037281 C7,3.44837281 6.552,3.00037281 6,3.00037281 C5.448,3.00037281 5,3.44837281 5,4.00037281 L5,5.00037281 L1,5.00037281 C0.448,5.00037281 0,5.44837281 0,6.00037281 L0,8.00037281 C0,8.55237281 0.448,9.00037281 1,9.00037281 C1.552,9.00037281 2,8.55237281 2,8.00037281 L2,7.00037281 L5,7.00037281 L5,8.00037281 C5,8.55237281 5.448,9.00037281 6,9.00037281 C6.552,9.00037281 7,8.55237281 7,8.00037281 L7,7.00037281 L10,7.00037281 L10,8.00037281 C10,8.55237281 10.448,9.00037281 11,9.00037281 C11.552,9.00037281 12,8.55237281 12,8.00037281 L12,6.00037281 C12,5.44837281 11.552,5.00037281 11,5.00037281 M6.71,10.2913728 C6.66,10.2513728 6.61,10.2003728 6.56,10.1713728 C6.5,10.1313728 6.44,10.1013728 6.38,10.0813728 C6.32,10.0513728 6.26,10.0303728 6.2,10.0203728 C5.87,9.95037281 5.52,10.0623728 5.29,10.2913728 C5.2,10.3913728 5.13,10.5013728 5.08,10.6203728 C5.03,10.7413728 5,10.8703728 5,11.0013728 C5,11.2613728 5.11,11.5203728 5.29,11.7113728 C5.48,11.8913728 5.74,12.0013728 6,12.0013728 C6.07,12.0013728 6.13,11.9913728 6.2,11.9813728 C6.26,11.9713728 6.32,11.9503728 6.38,11.9213728 C6.44,11.9013728 6.5,11.8703728 6.56,11.8313728 C6.61,11.7913728 6.66,11.7513728 6.71,11.7113728 C6.89,11.5203728 7,11.2613728 7,11.0013728 C7,10.8703728 6.97,10.7413728 6.92,10.6203728 C6.87,10.5013728 6.8,10.3913728 6.71,10.2913728 M1.71,10.2913728 C1.66,10.2513728 1.61,10.2003728 1.56,10.1713728 C1.5,10.1313728 1.44,10.1013728 1.38,10.0813728 C1.32,10.0513728 1.26,10.0303728 1.2,10.0203728 C0.87,9.95037281 0.52,10.0623728 0.29,10.2913728 C0.2,10.3913728 0.13,10.5013728 0.08,10.6203728 C0.03,10.7413728 0,10.8703728 0,11.0013728 C0,11.2613728 0.11,11.5203728 0.29,11.7113728 C0.48,11.8913728 0.74,12.0013728 1,12.0013728 C1.07,12.0013728 1.13,11.9913728 1.2,11.9813728 C1.26,11.9713728 1.32,11.9503728 1.38,11.9213728 C1.44,11.9013728 1.5,11.8703728 1.56,11.8313728 C1.61,11.7913728 1.66,11.7513728 1.71,11.7113728 C1.89,11.5203728 2,11.2613728 2,11.0013728 C2,10.8703728 1.97,10.7413728 1.92,10.6203728 C1.87,10.5013728 1.8,10.3913728 1.71,10.2913728 M11.71,10.2913728 C11.66,10.2513728 11.61,10.2003728 11.56,10.1713728 C11.5,10.1313728 11.44,10.1013728 11.38,10.0813728 C11.32,10.0513728 11.26,10.0303728 11.2,10.0203728 C10.87,9.95037281 10.52,10.0623728 10.29,10.2913728 C10.2,10.3913728 10.13,10.5013728 10.08,10.6203728 C10.03,10.7413728 10,10.8703728 10,11.0013728 C10,11.2613728 10.11,11.5203728 10.29,11.7113728 C10.48,11.8913728 10.74,12.0013728 11,12.0013728 C11.07,12.0013728 11.13,11.9913728 11.2,11.9813728 C11.26,11.9713728 11.32,11.9503728 11.38,11.9213728 C11.44,11.9013728 11.5,11.8703728 11.56,11.8313728 C11.61,11.7913728 11.66,11.7513728 11.71,11.7113728 C11.89,11.5203728 12,11.2613728 12,11.0013728 C12,10.8703728 11.97,10.7413728 11.92,10.6203728 C11.87,10.5013728 11.8,10.3913728 11.71,10.2913728 M6,2.00037281 C6.07,2.00037281 6.13,1.98937281 6.2,1.97937281 C6.26,1.97037281 6.32,1.95037281 6.38,1.92037281 C6.44,1.89937281 6.5,1.87037281 6.56,1.82937281 C6.61,1.79037281 6.66,1.75037281 6.71,1.71037281 C6.89,1.52137281 7,1.26037281 7,1.00037281 C7,0.870372807 6.97,0.739372807 6.92,0.620372807 C6.87,0.500372807 6.8,0.390372807 6.71,0.290372807 C6.66,0.250372807 6.61,0.200372807 6.56,0.170372807 C6.5,0.130372807 6.44,0.100372807 6.38,0.0793728075 C6.32,0.0503728075 6.26,0.0303728075 6.2,0.0213728075 C5.87,-0.0496271925 5.52,0.0603728075 5.29,0.290372807 C5.2,0.390372807 5.13,0.500372807 5.08,0.620372807 C5.03,0.739372807 5,0.870372807 5,1.00037281 C5,1.26037281 5.11,1.52137281 5.29,1.71037281 C5.48,1.89037281 5.74,2.00037281 6,2.00037281" id="Fill-1" fill="#000000"></path>
    </g>
</svg>

<svg viewBox="0 0 12 12" xmlns="http://www.w3.org/2000/svg">
  <path d="M11 5H7V4a1 1 0 0 0-2 0v1H1a1 1 0 0 0-1 1v2a1 1 0 0 0 2 0V7h3v1a1 1 0 0 0 2 0V7h3v1a1 1 0 0 0 2 0V6a1 1 0 0 0-1-1m-4.29 5.291c-.05-.04-.1-.09-.15-.12a.757.757 0 0 0-.18-.09.639.639 0 0 0-.18-.06c-.33-.07-.68.041-.91.27-.09.1-.16.21-.21.33A1 1 0 0 0 5 11c0 .26.11.52.29.71.19.18.45.29.71.29.07 0 .13-.01.2-.02.06-.01.12-.03.18-.06.06-.02.12-.05.18-.09l.15-.12c.18-.19.29-.45.29-.71a1 1 0 0 0-.08-.38 1.164 1.164 0 0 0-.21-.33m-5 0c-.05-.04-.1-.09-.15-.12a.757.757 0 0 0-.18-.09.639.639 0 0 0-.18-.06c-.33-.07-.68.041-.91.27-.09.1-.16.21-.21.33A1 1 0 0 0 0 11c0 .26.11.52.29.71.19.18.45.29.71.29.07 0 .13-.01.2-.02.06-.01.12-.03.18-.06.06-.02.12-.05.18-.09l.15-.12c.18-.19.29-.45.29-.71a1 1 0 0 0-.08-.38 1.164 1.164 0 0 0-.21-.33m10 0c-.05-.04-.1-.09-.15-.12a.757.757 0 0 0-.18-.09.639.639 0 0 0-.18-.06c-.33-.07-.68.041-.91.27-.09.1-.16.21-.21.33A1 1 0 0 0 10 11c0 .26.11.52.29.71.19.18.45.29.71.29.07 0 .13-.01.2-.02.06-.01.12-.03.18-.06.06-.02.12-.05.18-.09l.15-.12c.18-.19.29-.45.29-.71a1 1 0 0 0-.08-.38 1.164 1.164 0 0 0-.21-.33M6 2.001c.07 0 .13-.012.2-.022a.603.603 0 0 0 .18-.059c.06-.02.12-.05.18-.09l.15-.12C6.89 1.521 7 1.26 7 1c0-.13-.03-.26-.08-.38S6.8.39 6.71.29C6.66.25 6.61.2 6.56.17a.802.802 0 0 0-.18-.09A.63.63 0 0 0 6.2.02c-.33-.07-.68.04-.91.27-.09.1-.16.21-.21.33A.991.991 0 0 0 5 1c0 .26.11.52.29.71.19.18.45.29.71.29"/>
</svg>
